X:1
T:Thunderhead
M:6/8
L:1/8
Q:80
C:G. Larson
S:Jig
K:HP
|: {g}B{d}B{e}B{g}fB{G}B | \
{g}eB{G}B{g}dBA | \
{g}B{d}B{e}B{g}fgf |
{g}edB{g}A{d}Bd | \
{g}B{d}B{e}B{g}fB{G}B | \
{g}eB{G}B{g}def |
{a}gfe{g}fed | \
{g}edB{g}A{d}Bd :: \
afd{g}edB |
{g}A{d}Bd{g}c{e}c{G}c | \
{g}B{d}c{G}c{g}B{d}c{G}c | \
{g}dcB{g}c{e}c{G}c |
afd{g}edB | \
{g}A{d}Bd{g}c{e}c{G}c | \
{g}{g}B{g}c{d}Aa |
g{a}ec{Gdc}d3 :|
